svgs/sharp-thin/newspaper.svg

<svg xmlns="http://www.w3.org/2000/svg" viewBox="0 0 512 512"><!--! Font Awesome Pro 6.6.0 by @fontawesome - https://fontawesome.com License - https://fontawesome.com/license (Commercial License) Copyright 2024 Fonticons, Inc. --><path d="M96 32l8 0 400 0 8 0 0 8 0 432 0 8-8 0-392 0-8 0-48 0L8 480l-8 0 0-8L0 136l0-8 8 0 56 0 0 16-48 0 0 320 40 0 40 0L96 40l0-8zm16 16l0 416 384 0 0-416L112 48zM352 96l8 0 80 0 8 0 0 16-8 0-80 0-8 0 0-16zm0 64l8 0 80 0 8 0 0 16-8 0-80 0-8 0 0-16zm0 64l8 0 80 0 8 0 0 16-8 0-80 0-8 0 0-16zM160 288l8 0 272 0 8 0 0 16-8 0-272 0-8 0 0-16zm0 64l8 0 272 0 8 0 0 16-8 0-272 0-8 0 0-16zm16-240l0 112 128 0 0-112-128 0zM160 96l16 0 128 0 16 0 0 16 0 112 0 16-16 0-128 0-16 0 0-16 0-112 0-16z"/></svg>

<svg xmlns="http://www.w3.org/2000/svg" viewBox="0 0 512 512"><!--! Font Awesome Pro 6.5.2 by @fontawesome - https://fontawesome.com License - https://fontawesome.com/license (Commercial License) Copyright 2024 Fonticons, Inc. --><path d="M96 32h8H504h8v8V472v8h-8H112h-8H56 8 0v-8V136v-8H8 64v16H16V464H56 96V40 32zm16 16V464H496V48H112zM352 96h8 80 8v16h-8H360h-8V96zm0 64h8 80 8v16h-8H360h-8V160zm0 64h8 80 8v16h-8H360h-8V224zM160 288h8H440h8v16h-8H168h-8V288zm0 64h8H440h8v16h-8H168h-8V352zm16-240V224H304V112H176zM160 96h16H304h16v16V224v16H304 176 160V224 112 96z"/></svg>
